!!!!SEGMENT: pl-cz--ii-153--004_maader-ludwik--requiem-in-dis-sanctus.krn
!!!cenid: 17xx:963
!!!COM: Maader, Ludwik
!!!COM-rismID: pe30020328
!!!CDT: <1794->1798
!!!CNT:
!!!OPR: Requiem in Dis
!!!OTL: Sanctus
!!!OMV: 004
!!!PDT:
!!!AGN: Sacred; Requiem
!!!SMS-siglum: PL-CZ
!!!SMS-shelfmark: II-153
!!!SMS-shelfwork: 001-004 M
!!!SMS-variant:
!!!SMS-altvar:
!!!NIFC-rismSourceID: 300000766
!!!NIFC-rismChildID: 300000766
!!!NIFC-islandoraID: pl-cz:32572
!!!URL-pdf-islandora: https://repozytorium.nifc.pl/islandora/object/pl-cz%3A32572/datastream/PDF/view
!!!URL-scan: https://polish.musicsources.pl/pl/lokalizacje/galeria/rekopisy/6767/1 @EN{Scan on Polish Music Sources Website} @PL{Skany w portalu Dziedzictwo Muzyki Polskiej w otwartym dostępie}
!!!IIIF:
!!!ONB-nifc: UWAGA: części Requiem: Requiem, Dies irae, Domine Jesu Christe, Sanctus, Benedictus, Agnus, Lux aeterna, Requiem
!!!AIN: 1 alto 1 bass 2 cor 1 organ 1 soprn 1 tenor 2 violn
!!!key: E-
**kern	**fba	**dynam	**kern	**dynam	**kern	**dynam	**kern	**text	**kern	**text	**kern	**text	**text	**kern	**text	**kern	**kern
*part9	*part9	*part9	*part8	*part8	*part7	*part7	*part6	*part6	*part5	*part5	*part4	*part4	*part4	*part3	*part3	*part2	*part1
*staff9	*	*	*staff8	*	*staff7	*	*staff6	*staff6	*staff5	*staff5	*staff4	*staff4	*staff4	*staff3	*staff3	*staff2	*staff1
*ICklav	*	*	*ICstr	*	*ICstr	*	*ICvox	*	*ICvox	*	*ICvox	*	*	*ICvox	*	*ICbras	*ICbras
*Iorgan	*	*	*Ivioln	*	*Ivioln	*	*Ibass	*	*Itenor	*	*Ialto	*	*	*Isoprn	*	*Icor	*Icor
*IGcont	*	*	*	*	*	*	*IGcoro	*	*IGcoro	*	*IGcoro	*	*	*IGcoro	*	*	*
*I"Organo	*	*	*I"Violino Secondo	*	*I"Violino Primo	*	*I"Basso	*	*I"Tenore	*	*I"Alto	*	*	*I"Canto	*	*I"Cornu Secondo Obl in Dis	*I"Cornu Primo in Dis Obl.
*I'org	*	*	*I'vl 2	*	*I'vl 1	*	*I'B	*	*I'T	*	*I'A	*	*	*I'S	*	*I'cor 2 in E|b	*I'cor 1 in E|b
*clefF4	*	*	*clefG2	*	*clefG2	*	*clefF4	*	*clefC4	*	*clefC3	*	*	*clefC1	*	*clefG2	*clefG2
*	*	*	*	*	*	*	*	*	*	*	*	*	*	*	*	*ITrd5c9	*ITrd5c9
*k[b-e-a-]	*	*	*k[b-e-a-]	*	*k[b-e-a-]	*	*k[b-a-e-]	*	*k[b-e-a-]	*	*k[e-b-a-]	*	*	*k[a-e-b-]	*	*k[b-e-a-]	*k[b-e-a-]
*E-:	*	*	*E-:	*	*E-:	*	*E-:	*	*E-:	*	*E-:	*	*	*E-:	*	*E-:	*E-:
*M3/4	*	*	*M3/4	*	*M3/4	*below	*M3/4	*	*M3/4	*	*M3/4	*	*	*M3/4	*	*M3/4	*M3/4
=1	=1	=1	=1	=1	=1	=1	=1	=1	=1	=1	=1	=1	=1	=1	=1	=1	=1
*2\right	*	*	*2\right	*	*2\right	*	*2\right	*	*2\right	*	*2\right	*	*	*2\right	*	*2\right	*2\right
!LO:TX:a:t=andante	!	!	!LO:TX:a:t=andante	!	!LO:TX:a:t=Andante	!	!LO:TX:a:t=Andante	!	!LO:TX:a:t=Andante	!	!LO:TX:a:t=Andante	!	!	!LO:TX:a:t=andante	!	!LO:TX:a:t=Andante	!LO:TX:a:t=andante
4E-\	.	.	4r	.	4r	.	4e-\	Sa-	4e-\	San-	4g\	San-	.	4b-\	San-	4G/	4e-\
4E-\	.	.	8r	.	8r	.	4E-\	-ctus	4e-\	-ctus	4g\	-ctus	.	4b-\	-ctus	4G/	4e-\
!	!	!	!LO:TX:b:t=mezze voce.	!	!	!	!	!	!	!	!	!	!	!	!	!	!
!	!	!	!LO:TX:a:t=Solo	!	!LO:TX:b:t=mežže voce	!	!	!	!	!	!	!	!	!	!	!	!
.	.	.	8g/L	.	8ee-\L	.	.	.	.	.	.	.	.	.	.	.	.
4r	.	.	8g/	.	8ee-\	.	4r	.	4r	.	4r	.	.	4r	.	4r	4r
.	.	.	8g/J	.	8ee-\J	.	.	.	.	.	.	.	.	.	.	.	.
=2	=2	=2	=2	=2	=2	=2	=2	=2	=2	=2	=2	=2	=2	=2	=2	=2	=2
!	!	!	!	!	!	!	!	!	!	!	!	!	!	!LO:TX:a:t=5	!	!	!
.	.	.	8qqa-/	.	8qqff/	.	.	.	.	.	.	.	.	.	.	.	.
!	!	!LO:DY:Bi:t=piano:rj	!	!	!	!	!	!	!	!	!	!	!	!	!	!	!
4BB-/	.	p	8g/L	.	8ee-\L	.	0.r	.	2.r	.	0.r	.	.	0.r	.	2.r	2.r
.	.	.	16f/L	.	16dd\L	.	.	.	.	.	.	.	.	.	.	.	.
.	.	.	16g/JJ	.	16ee-\JJ	.	.	.	.	.	.	.	.	.	.	.	.
4r	.	.	8f/L	.	8dd\L	.	.	.	.	.	.	.	.	.	.	.	.
.	.	.	8a-/	.	8ff\	.	.	.	.	.	.	.	.	.	.	.	.
4D\	.	.	8a-/	.	8ff\	.	.	.	.	.	.	.	.	.	.	.	.
.	.	.	8a-/J	.	8ff\J	.	.	.	.	.	.	.	.	.	.	.	.
=3	=3	=3	=3	=3	=3	=3	=3	=3	=3	=3	=3	=3	=3	=3	=3	=3	=3
.	.	.	8qqb-/	.	8qqgg/	.	.	.	.	.	.	.	.	.	.	.	.
4E-\	.	.	8a-/L	.	8ff\L	.	.	.	0.r	.	.	.	.	.	.	4r	4r
.	.	.	16g/L	.	16ee-\L	.	.	.	.	.	.	.	.	.	.	.	.
.	.	.	16a-/JJ	.	16ff\JJ	.	.	.	.	.	.	.	.	.	.	.	.
!	!	!	!LO:TX:t=P:problem=mixed beam	!	!	!	!	!	!	!	!	!	!	!	!	!	!
4r	.	.	8g/L	.	8ee-\L	.	.	.	.	.	.	.	.	.	.	4r	4r
.	.	.	8ee-\	.	8gg\	.	.	.	.	.	.	.	.	.	.	.	.
!	!	!	!	!	!	!	!	!	!	!	!	!	!	!	!	!	!LO:TX:a:t=Solo
4E-\	.	.	8ee-\	.	8gg\	.	.	.	.	.	.	.	.	.	.	4e-\	4g\
.	.	.	8ee-\J	.	8gg\J	.	.	.	.	.	.	.	.	.	.	.	.
=4	=4	=4	=4	=4	=4	=4	=4	=4	=4	=4	=4	=4	=4	=4	=4	=4	=4
.	.	.	8qqff/	.	8qqgg/	.	.	.	.	.	.	.	.	.	.	8qqf/	8qqa-/
4BB-/	.	.	8ee-\L	.	8gg\L	.	.	.	.	.	.	.	.	.	.	8e-\L	8g\L
!	!	!	!	!	!	!	!	!	!	!	!	!	!	!	!	!LO:TX:a:t=Solo	!
.	.	.	16dd\L	.	16ff\L	.	.	.	.	.	.	.	.	.	.	16B-\L	16f\L
.	.	.	16ee-\JJ	.	16gg\JJ	.	.	.	.	.	.	.	.	.	.	16e-\JJ	16g\JJ
!	!	!	!	!	!	!	!	!	!	!	!	!	!	!	!	!LO:TX:t=P:problem=mixed beam	!
4r	.	.	8dd\L	.	8ff\L	.	.	.	.	.	.	.	.	.	.	8B-/L	8f\L
.	.	.	8ff\	.	8aa-\	.	.	.	.	.	.	.	.	.	.	8f\J	8a-\J
4D\	.	.	8ff\	.	8aa-\	.	.	.	.	.	.	.	.	.	.	4f\	4a-\
.	.	.	8ff\J	.	8aa-\J	.	.	.	.	.	.	.	.	.	.	.	.
=5	=5	=5	=5	=5	=5	=5	=5	=5	=5	=5	=5	=5	=5	=5	=5	=5	=5
.	.	.	8qqgg/	.	8qqbb-/	.	.	.	.	.	.	.	.	.	.	8qqg/	8qb-/
4E-\	.	.	8ff\L	.	8aa-\L	.	.	.	.	.	.	.	.	.	.	8f\L	8a-\L
.	.	.	16ee-\L	.	16gg\L	.	.	.	.	.	.	.	.	.	.	16e-\L	16g\L
.	.	.	16ff\JJ	.	16aa-\JJ	.	.	.	.	.	.	.	.	.	.	16f\JJ	16a-\JJ
4r	.	.	8ee-\L	.	8gg\L	.	.	.	.	.	.	.	.	.	.	4e-\	4g\
.	.	.	8gg\	.	8bb-\	.	.	.	.	.	.	.	.	.	.	.	.
4E-\	.	.	8gg\	.	8bb-\	.	.	.	.	.	.	.	.	.	.	4r	4r
.	.	.	8gg\J	.	8bb-\J	.	.	.	.	.	.	.	.	.	.	.	.
=6	=6	=6	=6	=6	=6	=6	=6	=6	=6	=6	=6	=6	=6	=6	=6	=6	=6
!	!	!	!LO:LB:g=original	!	!LO:LB:g=original	!	!	!	!	!	!	!	!	!	!	!	!
4A-\	.	.	8gg\L	.	8bb-\L	.	2.r	.	.	.	2.r	.	.	2.r	.	2.r	2.r
.	.	.	16ff\L	.	16aa-\L	.	.	.	.	.	.	.	.	.	.	.	.
.	.	.	16gg\JJ	.	16bb-\JJ	.	.	.	.	.	.	.	.	.	.	.	.
4r	.	.	16aa-\LL	.	16ccc\LL	.	.	.	.	.	.	.	.	.	.	.	.
.	.	.	16gg\	.	16bb-\	.	.	.	.	.	.	.	.	.	.	.	.
.	.	.	16ff\	.	16aa-\	.	.	.	.	.	.	.	.	.	.	.	.
.	.	.	16ee-\JJ	.	16gg\JJ	.	.	.	.	.	.	.	.	.	.	.	.
4A-\	.	.	16a-/LL	.	16ff\LL	.	.	.	.	.	.	.	.	.	.	.	.
.	.	.	16cc/	.	16aa-\	.	.	.	.	.	.	.	.	.	.	.	.
.	.	.	16b-/	.	16gg\	.	.	.	.	.	.	.	.	.	.	.	.
.	.	.	16a-/JJ	.	16ff\JJ	.	.	.	.	.	.	.	.	.	.	.	.
=7	=7	=7	=7	=7	=7	=7	=7	=7	=7	=7	=7	=7	=7	=7	=7	=7	=7
!	!	!	!	!	!	!	!	!	!	!	!	!	!	!	!	!LO:TX:a:t=Tutti	!LO:TX:a:t=Tutti
4B-\	.	.	4f/	.	4dd\	.	4r	.	4r	.	4r	.	.	4r	.	4B-/	4f\
4E-\	.	.	4g/	.	8ee-|\L	.	4r	.	4r	.	4r	.	.	4r	.	4e-\	4g\
.	.	.	.	.	8ee-|\	.	.	.	.	.	.	.	.	.	.	.	.
!	!	!LO:DY:Bi:t=for	!	!	!	!	!	!	!	!	!	!	!	!	!	!	!
4G\	x 6	f	4g/	.	8ee-|\	.	4E-\	San-	4B-\	San-	4g\	San-	.	4ee-\	San-	4e-\	4g\
.	.	.	.	.	8ee-|\J	.	.	.	.	.	.	.	.	.	.	.	.
=8	=8	=8	=8	=8	=8	=8	=8	=8	=8	=8	=8	=8	=8	=8	=8	=8	=8
!LO:LB:g=original	!	!	!LO:TX:a:t=Tutti	!LO:DY:Bi:t=for:rj	!	!	!	!	!	!	!	!	!	!	!	!LO:LB:g=original	!
4BB-/	.	.	4.f/	f	4.dd\	.	2BB-/	.	2.B-\	.	2f\	.	.	2dd\	.	2B-/	2f\
4BB-/	.	.	.	.	.	.	.	.	.	.	.	.	.	.	.	.	.
!	!	!	!	!	!	!LO:DY:Bi:t=forte	!	!	!	!	!	!	!	!	!	!	!
.	.	.	8a-/L	.	8ff\L	f	.	.	.	.	.	.	.	.	.	.	.
4D\	.	.	8a-/	.	8ff\	.	4D\	.	.	.	4a-\	.	.	4ff\	.	4B-/	4f\
.	.	.	8a-/J	.	8ff\J	.	.	.	.	.	.	.	.	.	.	.	.
=9	=9	=9	=9	=9	=9	=9	=9	=9	=9	=9	=9	=9	=9	=9	=9	=9	=9
!	!	!	!	!	!	!	!	!	!	!	!	!	!	!	!	!	!LO:LB:g=original
4E-\	.	.	4.g/	.	4.ee-\	.	2E-\	-ctus	2B-\	-ctus	2g\	-ctus	.	2ee-\	-ctus	2G/	2e-\
4E-\	.	.	.	.	.	.	.	.	.	.	.	.	.	.	.	.	.
.	.	.	8ee-\L	.	8gg\L	.	.	.	.	.	.	.	.	.	.	.	.
4E-\	.	.	8ee-\	.	8gg\	.	4E-\	San-	4e-\	San-	4b-\	San-	.	4gg\	San-	4e-\	4g\
.	.	.	8ee-\J	.	8gg\J	.	.	.	.	.	.	.	.	.	.	.	.
=10	=10	=10	=10	=10	=10	=10	=10	=10	=10	=10	=10	=10	=10	=10	=10	=10	=10
4BB-/	.	.	4.dd\	.	4.ff\	.	2.BB-/	.	2d\	.	2.b-\	.	.	2ff\	.	2B-/	2f\
4BB-/	.	.	.	.	.	.	.	.	.	.	.	.	.	.	.	.	.
.	.	.	8ff\L	.	8aa-\L	.	.	.	.	.	.	.	.	.	.	.	.
4D\	.	.	8ff\	.	8aa-\	.	.	.	4f\	.	.	.	.	4aa-\	.	4f\	4a-\
.	.	.	8ff\J	.	8aa-\J	.	.	.	.	.	.	.	.	.	.	.	.
=11	=11	=11	=11	=11	=11	=11	=11	=11	=11	=11	=11	=11	=11	=11	=11	=11	=11
4E-\	.	.	4.ee-\	.	4.gg\	.	2.E-\	-ctus	2.e-\	-ctus	2.b-\	-ctus	.	2.gg\	-ctus	2.e-\	2g\
4EE-/	.	.	.	.	.	.	.	.	.	.	.	.	.	.	.	.	.
.	.	.	8ee-\	.	8gg\	.	.	.	.	.	.	.	.	.	.	.	.
4E-\	.	.	4ee-\	.	4gg\	.	.	.	.	.	.	.	.	.	.	.	4g\
=12	=12	=12	=12	=12	=12	=12	=12	=12	=12	=12	=12	=12	=12	=12	=12	=12	=12
!	!	!	!	!	!	!	!LO:LB:g=original	!	!LO:LB:g=original	!	!	!	!	!LO:LB:g=original	!	!	!
2E-\	.	.	4b-\	.	8r	.	4.E-\	Do-	4.e-\	Do-	4.b-\	Do-	.	4.gg\	Do-	2e-\	2g\
.	.	.	.	.	8gg\L	.	.	.	.	.	.	.	.	.	.	.	.
.	.	.	4b-\	.	8gg\	.	.	.	.	.	.	.	.	.	.	.	.
.	.	.	.	.	8gg\J	.	8E-\	-mi-	8e-\	-mi-	8b-\	-mi-	.	8gg\	-mi-	.	.
4BB-/	.	.	4b-\	.	4ff\	.	4BB-/	-nus	4d\	-nus	4b-\	-nus	.	4ff\	-nus	4B-/	4f\
=13	=13	=13	=13	=13	=13	=13	=13	=13	=13	=13	=13	=13	=13	=13	=13	=13	=13
!	!	!	!	!	!	!	!	!	!	!	!LO:LB:g=original	!	!	!	!	!	!
8E-\L	.	.	8b-\L	.	8gg\L	.	8E-\L	De-	8e-\	De-	8b-\	De-	.	8gg\	De-	2.r	2.r
8D\J	x 6	.	8dd\J	.	8bb-\J	.	8D\J	-us	8f\	-us	8b-\	-us	.	8ff\	-us	.	.
2C/	x 7	.	4ee-\	.	4bb-\	.	4C/	Sa-	4c\	Sa-	4b-\	Sa-	.	4ee-\	Sa-	.	.
.	x n6	.	4ee-\	.	4aan\	.	4C/	-ba-	4c\	-ba-	4an\	-ba-	.	4ee-\	-ba-	.	.
=14	=14	=14	=14	=14	=14	=14	=14	=14	=14	=14	=14	=14	=14	=14	=14	=14	=14
4BB-/	.	.	4dd\	.	4bb-\	.	4BB-/	-oth	4d\	-oth	4b-\	-oth	.	4dd\	-oth,	4B-/	4f\
!	!	!LO:DY:Bi:t=piano.	!	!	!	!	!	!	!	!	!	!	!	!	!	!	!
4B-\	.	p	8r	.	8r	.	4r	.	4r	.	4r	.	.	4r	.	4r	4r
!	!	!	!LO:TX:a:t=dolce	!LO:DY:Bi:t=pia	!LO:TX:a:t=dolce	!LO:DY:Bi:t=piano	!	!	!	!	!	!	!	!	!	!	!
.	.	.	8b-|\L	p	8dd\L	p	.	.	.	.	.	.	.	.	.	.	.
4B-\	.	.	8b-|\	.	8dd\	.	4r	.	4r	.	4r	.	.	4r	.	4r	4r
.	.	.	8b-|\J	.	8dd\J	.	.	.	.	.	.	.	.	.	.	.	.
=15	=15	=15	=15	=15	=15	=15	=15	=15	=15	=15	=15	=15	=15	=15	=15	=15	=15
!	!	!	!LO:LB:g=original	!	!LO:LB:g=original	!	!	!	!	!	!	!	!	!LO:TX:a:t=4	!	!	!
.	.	.	8qqdd/	.	8qqff/	.	.	.	.	.	.	.	.	.	.	.	.
4c\	.	.	4cc\	.	4ee-\	.	0.r	.	0.r	.	0.r	.	.	0.r	.	0.r	0.r
4An\	.	.	8r	.	8r	.	.	.	.	.	.	.	.	.	.	.	.
.	.	.	8an/L	.	8cc\L	.	.	.	.	.	.	.	.	.	.	.	.
4F\	.	.	8a/	.	8cc\	.	.	.	.	.	.	.	.	.	.	.	.
.	.	.	8a/J	.	8cc\J	.	.	.	.	.	.	.	.	.	.	.	.
=16	=16	=16	=16	=16	=16	=16	=16	=16	=16	=16	=16	=16	=16	=16	=16	=16	=16
.	.	.	8qqcc/	.	8qqee-/	.	.	.	.	.	.	.	.	.	.	.	.
4B-\	.	.	4b-\	.	4dd\	.	.	.	.	.	.	.	.	.	.	.	.
4D/	.	.	8r	.	8r	.	.	.	.	.	.	.	.	.	.	.	.
.	.	.	8d/L	.	8b-\L	.	.	.	.	.	.	.	.	.	.	.	.
4BB-/	.	.	8d/	.	8b-\	.	.	.	.	.	.	.	.	.	.	.	.
.	.	.	8f/J	.	8dd\J	.	.	.	.	.	.	.	.	.	.	.	.
=17	=17	=17	=17	=17	=17	=17	=17	=17	=17	=17	=17	=17	=17	=17	=17	=17	=17
!	!	!	!LO:TX:t=P:problem=mixed beam	!	!LO:TX:t=P:problem=mixed beam	!	!	!	!	!	!	!	!	!	!	!	!
4E-\	.	.	8e-/L	.	8g/L	.	.	.	.	.	.	.	.	.	.	.	.
.	.	.	8ee-\	.	8gg\	.	.	.	.	.	.	.	.	.	.	.	.
4F\	.	.	8ee-\	.	8gg\	.	.	.	.	.	.	.	.	.	.	.	.
.	.	.	8dd\	.	8ff\	.	.	.	.	.	.	.	.	.	.	.	.
4FF/	.	.	8dd\	.	8ff\	.	.	.	.	.	.	.	.	.	.	.	.
.	.	.	8e-/J	.	8an/J	.	.	.	.	.	.	.	.	.	.	.	.
=18	=18	=18	=18	=18	=18	=18	=18	=18	=18	=18	=18	=18	=18	=18	=18	=18	=18
2BB-/	.	.	4d/	.	4b-\	.	.	.	.	.	.	.	.	.	.	.	.
.	.	.	4d/	.	4B-/	.	.	.	.	.	.	.	.	.	.	.	.
4r	.	.	4r	.	4r	.	.	.	.	.	.	.	.	.	.	.	.
=19||	=19||	=19||	=19||	=19||	=19||	=19||	=19||	=19||	=19||	=19||	=19||	=19||	=19||	=19||	=19||	=19||	=19||
*k[b-e-a-]	*	*	*	*	*	*	*	*	*	*	*	*	*	*	*	*	*clefG2
*M3/4	*	*	*M3/4	*	*	*	*M3/4	*	*M3/4	*	*	*	*	*M3/4	*	*M3/4	*M3/4
!LO:TX:a:t=allo moderato	!	!	!LO:TX:a:t=allo moderato.	!	!LO:TX:a:t=allo non molto	!	!LO:TX:a:t=allo mod&colon;	!	!LO:TX:a:t=allo mod&colon;	!	!LO:TX:a:t=allo	!	!	!LO:TX:a:t=allo moderato	!	!LO:TX:b:t=Pleni:rj	!LO:TX:b:t=Pleni:rj
!	!	!LO:DY:Bi:t=forte	!LO:TX:b:t=Pleni:rj	!	!LO:TX:b:t=Pleni:rj	!	!	!	!	!	!	!	!	!	!	!	!
4E-\	.	f	4b-\	.	4gg\	.	4E-\	Ple-	4B-\	Ple-	4g\	Ple-	.	4ee-\	Ple-	8e-|\L	2.g\
.	.	.	.	.	.	.	.	.	.	.	.	.	.	.	.	8B-|\	.
4E-\	.	.	4b-\	.	4gg\	.	4E-\	-ni	4B-\	-ni	4g\	-ni	.	4ee-\	-ni	8e-|\	.
.	.	.	.	.	.	.	.	.	.	.	.	.	.	.	.	8B-|\	.
4E-\	.	.	4b-\	.	4gg\	.	4E-\	sunt	4B-\	sunt	4g\	sunt	.	4ee-\	sunt	8e-'\	.
.	.	.	.	.	.	.	.	.	.	.	.	.	.	.	.	8B-'\J	.
=20	=20	=20	=20	=20	=20	=20	=20	=20	=20	=20	=20	=20	=20	=20	=20	=20	=20
!	!	!	!	!	!	!	!	!	!	!	!	!	!	!	!	!LO:TX:t=P:problem=mixed beam	!LO:TX:a:t=allo moderato
4D\	6 5	.	2b-\	.	2.aa-\	.	2D\	Cae-	2B-\	Cae-	2a-\	Cae-	.	2ff\	Cae-	8f\L	2.a-\
.	.	.	.	.	.	.	.	.	.	.	.	.	.	.	.	8B-/	.
2D\	.	.	.	.	.	.	.	.	.	.	.	.	.	.	.	8f\	.
.	.	.	.	.	.	.	.	.	.	.	.	.	.	.	.	8B-/	.
.	.	.	4b-\	.	.	.	4D\	-li	4B-\	-li	4a-\	-li	.	4ff\	-li	8f\	.
.	.	.	.	.	.	.	.	.	.	.	.	.	.	.	.	8B-/J	.
=21	=21	=21	=21	=21	=21	=21	=21	=21	=21	=21	=21	=21	=21	=21	=21	=21	=21
*	*	*	*	*	*	*	*	*ij	*	*ij	*	*ij	*	*	*ij	*	*
!	!	!	!	!	!	!	!	!	!	!	!	!	!	!	!	!LO:TX:t=P:problem=mixed beam	!
4E-\	.	.	4b-\	.	4gg\	.	4E-\	Cae-	4B-\	Cae-	4g\	Cae-	.	4ee-\	Cae-	8e-\L	2.g\
.	.	.	.	.	.	.	.	.	.	.	.	.	.	.	.	8B-/	.
4E-\	.	.	4b-\	.	4gg\	.	4E-\	-li	4B-\	-li	4g\	-li	.	4ee-\	-li	8e-\	.
*	*	*	*	*	*	*	*	*Xij	*	*Xij	*	*Xij	*	*	*Xij	*	*
.	.	.	.	.	.	.	.	.	.	.	.	.	.	.	.	8B-/	.
4E-\	.	.	4b-\	.	4gg\	.	4E-\	et	4B-\	et	4g\	et	.	4ee-\	et	8e-\	.
.	.	.	.	.	.	.	.	.	.	.	.	.	.	.	.	8B-/J	.
=22	=22	=22	=22	=22	=22	=22	=22	=22	=22	=22	=22	=22	=22	=22	=22	=22	=22
!	!	!	!	!	!	!	!LO:LB:g=original	!	!LO:LB:g=original	!	!	!	!	!LO:LB:g=original	!	!LO:LB:g=original	!
4B-\	.	.	2b-\	.	2.ff\	.	4B-\	Ter-	4B-\	ter-	4f\	Ter-	.	4dd\	Ter-	8B-/L	2.f\
.	.	.	.	.	.	.	.	.	.	.	.	.	.	.	.	8BB-/	.
2BB-/	.	.	.	.	.	.	2BB-/	-ra	2B-\	-ra	2f\	-ra	.	2dd\	-ra	8B-/	.
.	.	.	.	.	.	.	.	.	.	.	.	.	.	.	.	8BB-/J	.
.	.	.	4b-\	.	.	.	.	.	.	.	.	.	.	.	.	4B-/	.
=23	=23	=23	=23	=23	=23	=23	=23	=23	=23	=23	=23	=23	=23	=23	=23	=23	=23
4E-\	.	.	4b-\	.	4gg\	.	4.E-\	glo-	4.B-\	glo-	4.g\	glo-	.	4.ee-\	glo-	8e-/L	4g\
.	.	.	.	.	.	.	.	.	.	.	.	.	.	.	.	8B-/	.
4E-\	.	.	4b-\	.	4gg\	.	.	.	.	.	.	.	.	.	.	8e-/	4g\
.	.	.	.	.	.	.	8E-\	-ri-	8B-\	-ri-	8g\	-ri-	.	8ee-\	-ri-	8B-/	.
4E-\	.	.	4b-\	.	4gg\	.	4E-\	-a	4B-\	-a	4g\	-a	.	4ee-\	-a	8e-/	4g\
.	.	.	.	.	.	.	.	.	.	.	.	.	.	.	.	8B-/J	.
=24	=24	=24	=24	=24	=24	=24	=24	=24	=24	=24	=24	=24	=24	=24	=24	=24	=24
4D\	6 5	.	2.b-\	.	(2.aa-\	.	2D\	tu-	2B-\	tu-	2a-\	tu-	.	2ff\	tu-	8f\L	2.a-\
.	.	.	.	.	.	.	.	.	.	.	.	.	.	.	.	8B-\	.
2D\	.	.	.	.	.	.	.	.	.	.	.	.	.	.	.	8f\	.
.	.	.	.	.	.	.	.	.	.	.	.	.	.	.	.	8B-\	.
.	.	.	.	.	.	.	4D\	-a	4B-\	-a	4a-\	-a	.	4ff\	-a	8f\	.
.	.	.	.	.	.	.	.	.	.	.	.	.	.	.	.	8B-\J	.
=25	=25	=25	=25	=25	=25	=25	=25	=25	=25	=25	=25	=25	=25	=25	=25	=25	=25
!	!	!	!	!	!	!	!	!	!	!	!LO:LB:g=original	!	!	!	!	!	!LO:LB:g=original
4E-\	.	.	8b-/L	.	8gg\L)	.	4E-\	glo-	4B-\	glo-	4g\	glo-	.	4ee-\	glo-	4e-\	4g\
.	.	.	8g/J	.	8b-\	.	.	.	.	.	.	.	.	.	.	.	.
4A-\	.	.	4a-/	.	8cc\	.	8A-\L	-ri-	8A-\	-ri-	8e-\	-ri-	.	8cc\	-ri-	4r	4r
.	.	.	.	.	8ff\	.	8A-\J	-a	8c\	-a	8a-\	-a	.	8ff\	-a	.	.
!LO:TX:t=P:problem=mixed beam	!	!	!	!	!	!	!LO:TX:t=P:problem=mixed beam	!	!	!	!	!	!	!	!	!	!
8B-\L	6 4	.	8g/L	.	8ee-\	.	8B-\L	tu-	4B-\	tu-	8g\L	tu-	.	8ee-\L	tu-	4B-/	4f\
8BB-/J	5 3	.	8f/J	.	8dd\J	.	8BB-/J	.	.	.	8f\J	.	.	8dd\J	.	.	.
=26	=26	=26	=26	=26	=26	=26	=26	=26	=26	=26	=26	=26	=26	=26	=26	=26	=26
!	!	!	!LO:LB:g=original	!	!LO:LB:g=original	!	!	!	!	!	!	!	!	!	!	!	!
!	!	!	!	!	!LO:TX:t=P:problem=mixed beam	!	!	!	!	!	!	!	!	!	!	!	!
4E-\	.	.	8g'/L	.	8ee-'\L	.	4E-\	-a	4B-\	-a	4g\	-a	.	4ee-\	-a	8G'/L	8e-'\L
.	.	.	8e-'/	.	8e-'/	.	.	.	.	.	.	.	.	.	.	8E-'/	8e-'\
4r	.	.	8g'/	.	8g'/	.	4r	.	4r	.	4r	.	.	4r	.	8G'/	8g'\
.	.	.	8b-'/J	.	8b-'/J	.	.	.	.	.	.	.	.	.	.	8B-'/J	8b-'\J
4r	.	.	4e-'/	.	4e-/	.	4r	.	4r	.	4r	.	.	4r	.	4E-/	4e-\
=27	=27	=27	=27	=27	=27	=27	=27	=27	=27	=27	=27	=27	=27	=27	=27	=27	=27
!LO:LB:g=original	!	!	!	!	!	!	!	!	!	!	!	!	!	!	!	!	!
4BB-/	.	.	8d'/L	.	4B-/	.	4BB-/	glo-	4d\	glo-	4b-\	Ple-	[[O-	4ff\	Ple-	4B-/	4f\
.	.	.	8b-'/	.	.	.	.	.	.	.	.	.	.	.	.	.	.
4BB-/	.	.	8f'/	.	8aa-\L	.	4BB-/	-ri-	4d\	-ri-	4b-\	-ni	-san-	4ff\	-ni	4r	4r
.	.	.	8b-'/	.	8ff\	.	.	.	.	.	.	.	.	.	.	.	.
4BB-/	.	.	8a-'/	.	8ff\	.	4BB-/	-a	4d\	-a	4b-\	sunt	-na	4ff\	sunt	4r	4r
.	.	.	8b-'/J	.	8dd\J	.	.	.	.	.	.	.	.	.	.	.	.
=28	=28	=28	=28	=28	=28	=28	=28	=28	=28	=28	=28	=28	=28	=28	=28	=28	=28
4r	.	.	8g'/L	.	8ee-\L	.	2E-\	tu-	2e-\	tu-	2b-\	cae-	in	2gg\	Cae-	4e-\	4g\
.	.	.	8b-'/	.	8gg\J	.	.	.	.	.	.	.	.	.	.	.	.
4E-\	.	.	8e-'/	.	2b-/	.	.	.	.	.	.	.	.	.	.	4r	4r
.	.	.	8b-'/	.	.	.	.	.	.	.	.	.	.	.	.	.	.
4E-\	.	.	8g'/	.	.	.	4E-\	-a	4e-\	-a	4b-\	-li	ex]]	4gg\	-li	4r	4r
.	.	.	8b-'/J	.	.	.	.	.	.	.	.	.	.	.	.	.	.
=29	=29	=29	=29	=29	=29	=29	=29	=29	=29	=29	=29	=29	=29	=29	=29	=29	=29
*	*	*	*	*	*	*	*	*	*	*	*	*	*	*	*ij	*	*
!	!	!	!	!	!	!	!LO:LB:g=original	!	!	!	!	!	!	!	!	!	!
4BB-/	.	.	8d'/L	.	4B-/	.	4BB-/	glo-	4d\	glo-	4b-\	Cae-	.	4ff\	Cae-	4B-/	4f\
.	.	.	8b-'/	.	.	.	.	.	.	.	.	.	.	.	.	.	.
4BB-/	.	.	8f'/	.	8aa-\L	.	4BB-/	-ri-	4d\	-ri-	4b-\	-li	.	4ff\	-li	4r	4r
*	*	*	*	*	*	*	*	*	*	*	*	*	*	*	*Xij	*	*
.	.	.	8b-'/	.	8ff\	.	.	.	.	.	.	.	.	.	.	.	.
4BB-/	.	.	8a-'/	.	8ff\	.	4BB-/	-a	4d\	-a	4b-\	et	.	4ff\	et	4r	4r
.	.	.	8b-'/J	.	8dd\J	.	.	.	.	.	.	.	.	.	.	.	.
=30	=30	=30	=30	=30	=30	=30	=30	=30	=30	=30	=30	=30	=30	=30	=30	=30	=30
!	!	!	!	!	!	!	!	!	!	!	!	!	!	!LO:LB:g=original	!	!	!
4r	.	.	8g'/L	.	8ee-\L	.	4E-\	tu-	2e-\	tu-	4b-\	ter-	.	4gg\	Ter-	4e-\	4g\
.	.	.	8b-'/	.	8gg\J	.	.	.	.	.	.	.	.	.	.	.	.
4E-\	.	.	8e-'/	.	2b-/	.	2E-\	-a	.	.	2b-\	-ra	.	2gg\	-ra	4r	4r
.	.	.	8b-'/	.	.	.	.	.	.	.	.	.	.	.	.	.	.
4E-\	.	.	8g'/	.	.	.	.	.	4e-\	-a	.	.	.	.	.	4r	4r
.	.	.	8b-'/J	.	.	.	.	.	.	.	.	.	.	.	.	.	.
=31	=31	=31	=31	=31	=31	=31	=31	=31	=31	=31	=31	=31	=31	=31	=31	=31	=31
!	!	!	!	!	!	!	!	!	!LO:LB:g=original	!	!	!	!	!	!	!	!
2A-\	.	.	2e-/	.	8cc\L	.	4r	.	4r	.	4r	.	.	4r	.	0.r	0.r
.	.	.	.	.	8b-\	.	.	.	.	.	.	.	.	.	.	.	.
.	.	.	.	.	8cc\	.	4A-\	tu-	4E-/	tu-	4e-\	tu-	.	4cc\	tu-	.	.
.	.	.	.	.	8ee-\J	.	.	.	.	.	.	.	.	.	.	.	.
4G\	.	.	4e-/	.	4b-\	.	4G\	-a	4E-/	-a	4e-\	-a	.	4b-\	-a	.	.
=32	=32	=32	=32	=32	=32	=32	=32	=32	=32	=32	=32	=32	=32	=32	=32	=32	=32
2F\	x 6	.	2d/	.	8a-/L	.	4r	.	4r	.	4r	.	.	4r	.	.	.
.	.	.	.	.	8g/	.	.	.	.	.	.	.	.	.	.	.	.
*	*	*	*	*	*	*	*	*ij	*	*ij	*	*ij	*	*	*ij	*	*
.	.	.	.	.	8a-/	.	4F\	tu-	4F/	tu-	4d\	tu-	.	4a-\	tu-	.	.
.	.	.	.	.	8cc/J	.	.	.	.	.	.	.	.	.	.	.	.
4E-\	.	.	4e-/	.	4g/	.	4E-\	-a	4G/	-a	4e-\	-a	.	4g\	-a	.	.
*	*	*	*	*	*	*	*	*Xij	*	*Xij	*	*Xij	*	*	*Xij	*	*
=33	=33	=33	=33	=33	=33	=33	=33	=33	=33	=33	=33	=33	=33	=33	=33	=33	=33
!	!	!	!	!	!	!	!	!	!	!	!LO:LB:g=original	!	!	!	!	!	!
4A-\	.	.	8f/L	.	8f/L	.	4r	.	4r	.	4r	.	.	4r	.	.	.
.	.	.	8g/	.	8g/	.	.	.	.	.	.	.	.	.	.	.	.
4r	.	.	8a-/	.	8a-/	.	4r	.	4r	.	4r	.	.	4r	.	.	.
.	.	.	8b-/	.	8b-/	.	.	.	.	.	.	.	.	.	.	.	.
4An\	.	.	8cc/	.	8cc/	.	4An\	tu-	4c\	tu-	4e-\	tu-	.	4g/	tu-	.	.
.	.	.	8e-/J	.	8e-/J	.	.	.	.	.	.	.	.	.	.	.	.
=34	=34	=34	=34	=34	=34	=34	=34	=34	=34	=34	=34	=34	=34	=34	=34	=34	=34
4B-\	.	.	8d/L	.	8d/L	.	4B-\	-a	4B-\	-a	4d\	-a	.	4f/	-a	.	.
.	.	.	8e-/	.	8e-/	.	.	.	.	.	.	.	.	.	.	.	.
4r	.	.	8f/	.	8f/	.	4r	.	4r	.	4r	.	.	4r	.	.	.
.	.	.	8g/	.	8g/	.	.	.	.	.	.	.	.	.	.	.	.
4D\	.	.	8a-/	.	8a-/	.	4r	.	4r	.	4r	.	.	4r	.	.	.
.	.	.	8A-/J	.	8A-/J	.	.	.	.	.	.	.	.	.	.	.	.
=35	=35	=35	=35	=35	=35	=35	=35	=35	=35	=35	=35	=35	=35	=35	=35	=35	=35
!	!	!	!	!	!	!	!	!	!	!	!	!	!	!LO:TX:a:t=4	!	!	!
4E-\	.	.	8G/L	.	8G/L	.	0.r	.	0.r	.	0.r	.	.	0.r	.	0.r	0.r
.	.	.	8B-/	.	8B-/	.	.	.	.	.	.	.	.	.	.	.	.
4r	.	.	8G/	.	8e-/	.	.	.	.	.	.	.	.	.	.	.	.
.	.	.	8B-/	.	8g/	.	.	.	.	.	.	.	.	.	.	.	.
4G\	.	.	8A-/	.	8f/	.	.	.	.	.	.	.	.	.	.	.	.
.	.	.	8G/J	.	8e-/J	.	.	.	.	.	.	.	.	.	.	.	.
=36	=36	=36	=36	=36	=36	=36	=36	=36	=36	=36	=36	=36	=36	=36	=36	=36	=36
!	!	!	!LO:LB:g=original	!	!LO:LB:g=original	!	!	!	!	!	!	!	!	!	!	!	!
!	!	!	!LO:SIC:v:s=8An/L	!	!	!	!	!	!	!	!	!	!	!	!	!	!
4F\	.	.	8A-/L	.	8An/L	.	.	.	.	.	.	.	.	.	.	.	.
.	.	.	8c/	.	8c/	.	.	.	.	.	.	.	.	.	.	.	.
4r	.	.	8e-/	.	8e-/	.	.	.	.	.	.	.	.	.	.	.	.
.	.	.	8e-/	.	8g-X/	.	.	.	.	.	.	.	.	.	.	.	.
4AAn/	.	.	8d-X/	.	8f/	.	.	.	.	.	.	.	.	.	.	.	.
.	.	.	8c/J	.	8e-/J	.	.	.	.	.	.	.	.	.	.	.	.
=37	=37	=37	=37	=37	=37	=37	=37	=37	=37	=37	=37	=37	=37	=37	=37	=37	=37
!LO:LB:g=original	!	!	!	!	!	!	!	!	!	!	!	!	!	!	!	!	!
4BB-/	.	.	8dn/L	.	8d/L	.	.	.	.	.	.	.	.	.	.	.	.
.	.	.	8f/	.	8f/	.	.	.	.	.	.	.	.	.	.	.	.
4r	.	.	8a-/	.	8a-/	.	.	.	.	.	.	.	.	.	.	.	.
.	.	.	8a-/	.	8cc/	.	.	.	.	.	.	.	.	.	.	.	.
4D\	.	.	8g/	.	8b-/	.	.	.	.	.	.	.	.	.	.	.	.
.	.	.	8f/J	.	8a-/J	.	.	.	.	.	.	.	.	.	.	.	.
=38	=38	=38	=38	=38	=38	=38	=38	=38	=38	=38	=38	=38	=38	=38	=38	=38	=38
4E-\	.	.	8g\L	.	8g\L	.	.	.	.	.	.	.	.	.	.	.	.
.	.	.	8b-\	.	8b-\	.	.	.	.	.	.	.	.	.	.	.	.
4r	.	.	8dd-X\	.	8dd-X\	.	.	.	.	.	.	.	.	.	.	.	.
.	.	.	8dd-\	.	8ff\	.	.	.	.	.	.	.	.	.	.	.	.
4G\	.	.	8cc\	.	8ee-\	.	.	.	.	.	.	.	.	.	.	.	.
.	.	.	8b-\J	.	8dd-\J	.	.	.	.	.	.	.	.	.	.	.	.
=39	=39	=39	=39	=39	=39	=39	=39	=39	=39	=39	=39	=39	=39	=39	=39	=39	=39
4A-\	.	.	8a-\L	.	8cc\L	.	4A-X\	glo-	4c\	glo-	8a-\L	glo-	.	8cc\L	glo-	0.r	0.r
.	.	.	8cc\	.	8ee-\	.	.	.	.	.	8cc\J	.	.	8ee-\J	.	.	.
4B-\	.	.	8b-\	.	8dd-X\	.	4B-\	-ri-	4B-\	-ri-	8b-\L	-ri-	.	8dd-X\L	-ri-	.	.
.	.	.	8dd-X\J	.	8ff\J	.	.	.	.	.	8dd-X\J	.	.	8ff\J	.	.	.
4c\	x 6	.	8cc\L	.	4ee-\	.	4c\	-a	4A-\	-a	4cc\	-a	.	4ee-\	-a	.	.
.	.	.	8a-\J	.	.	.	.	.	.	.	.	.	.	.	.	.	.
=40	=40	=40	=40	=40	=40	=40	=40	=40	=40	=40	=40	=40	=40	=40	=40	=40	=40
4d-X\	9 7	.	8cc\L	.	8ee-\L	.	4d-X\	tu-	4f\	tu-	8cc\L	tu-	.	8ee-\L	tu-	.	.
!	!	!	!	!	!LO:SIC:v:s=8dd\J	!	!	!	!	!	!	!	!	!	!	!	!
.	8 6	.	8b-\J	.	8dd\J	.	.	.	.	.	8b-\J	.	.	8dd-X\J	.	.	.
4e-\	6 4	.	4a-/	.	4cc\	.	4e-\	.	2e-\	.	4a-\	.	.	4cc\	.	.	.
4E-\	5 3	.	4g/	.	4b-\	.	4E-\	.	.	.	4g\	.	.	4b-\	.	.	.
=41	=41	=41	=41	=41	=41	=41	=41	=41	=41	=41	=41	=41	=41	=41	=41	=41	=41
!	!	!	!	!	!	!	!LO:LB:g=original	!	!	!	!	!	!	!	!	!	!
4A-\	.	.	8a-/L	.	8cc\L	.	4A-\	-a	4e-\	-a	4a-\	-a	.	4cc\	-a	.	.
.	.	.	8cc/	.	8ee-\	.	.	.	.	.	.	.	.	.	.	.	.
4r	.	.	8cc/	.	8ee-\	.	4r	.	4r	.	4r	.	.	4r	.	.	.
.	.	.	8b-/	.	8dd-X\	.	.	.	.	.	.	.	.	.	.	.	.
4r	.	.	8e-/	.	8cc\	.	4r	.	4r	.	4r	.	.	4r	.	.	.
.	.	.	8d-X/J	.	8b-\J	.	.	.	.	.	.	.	.	.	.	.	.
=42	=42	=42	=42	=42	=42	=42	=42	=42	=42	=42	=42	=42	=42	=42	=42	=42	=42
4r	.	.	8c/L	.	8a-/L	.	2.r	.	2.r	.	2.r	.	.	2.r	.	.	.
.	.	.	8e-/J	.	8cc/J	.	.	.	.	.	.	.	.	.	.	.	.
2Dn\	.	.	2f/	.	4.b-/	.	.	.	.	.	.	.	.	.	.	.	.
.	.	.	.	.	8a-/	.	.	.	.	.	.	.	.	.	.	.	.
=43	=43	=43	=43	=43	=43	=43	=43	=43	=43	=43	=43	=43	=43	=43	=43	=43	=43
4E-\	.	.	8e-/L	.	8g/L	.	4E-\	glo-	4G/	glo-	8e-\L	glo-	.	8g\L	glo-	2.r	2.r
.	.	.	8g/	.	8b-/	.	.	.	.	.	8g\J	.	.	8b-\J	.	.	.
4F\	.	.	8f/	.	8a-/	.	4F\	-ri-	4F/	-ri-	8f\L	-ri-	.	8a-\L	-ri-	.	.
.	.	.	8a-/J	.	8cc/J	.	.	.	.	.	8a-\J	.	.	8cc\J	.	.	.
4G\	x 6	.	4g/	.	4b-/	.	4G\	-a	4E-/	-a	4g\	-a	.	4b-\	-a	.	.
=44	=44	=44	=44	=44	=44	=44	=44	=44	=44	=44	=44	=44	=44	=44	=44	=44	=44
!	!	!	!	!	!	!	!	!	!LO:LB:g=original	!	!	!	!	!LO:LB:g=original	!	!LO:LB:g=original	!
4A-\	9 7	.	8g/L	.	8b-/L	.	4A-\	tu-	4c\	tu-	8g\L	tu-	.	8b-\L	tu-	4r	4r
.	8 6	.	8f/J	.	8a-/J	.	.	.	.	.	8f\J	.	.	8a-\J	.	.	.
!	!	!	!	!	!	!	!	!	!	!	!	!	!	!	!	!LO:TX:a:t=Solo	!
4B-\	6 4	.	4e-/	.	4g/	.	4B-\	.	2B-\	.	4e-\	.	.	4g/	.	4e-\	4g\
4BB-/	5 3	.	4d/	.	4f/	.	4BB-/	.	.	.	4d\	.	.	4f/	.	4B-/	4f\
=45	=45	=45	=45	=45	=45	=45	=45	=45	=45	=45	=45	=45	=45	=45	=45	=45	=45
!	!	!	!LO:LB:g=original	!	!	!	!	!	!	!	!	!	!	!	!	!	!
4E-\	.	.	4e-/	.	4g/	.	4E-\	-a	4B-\	-a	4e-\	-a	.	4g/	-a	4e-\	4g\
4r	.	.	8f/L	.	8a-/L	.	4r	.	4r	.	4r	.	.	4r	.	8f\L	8a-\L
.	.	.	8e-/J	.	8g/J	.	.	.	.	.	.	.	.	.	.	8e-\J	8g\J
4r	.	.	4e-/	.	4g/	.	4r	.	4r	.	4r	.	.	4r	.	4e-\	4g\
=46	=46	=46	=46	=46	=46	=46	=46	=46	=46	=46	=46	=46	=46	=46	=46	=46	=46
*	*	*	*cue	*	*	*	*	*	*	*	*	*	*	*	*	*	*
!	!	!	!LO:TX:a:t=Corni Solo	!	!LO:TX:t=P:problem=zapis niejednoznaczny	!	!	!	!	!	!	!	!	!LO:TX:a:t=4	!	!	!LO:TX:a:t=Solo
!	!	!LO:DY:Bi:t=piano.:rj	!	!	!LO:TX:a:t=Corni.Solo.	!LO:DY:Bi:t=piano	!	!	!	!	!	!	!	!	!	!	!
4BB-/	.	p	4dd\	.	4f\ 4ff	p	0.r	.	0.r	.	0.r	.	.	0.r	.	4B-/	4f\
4r	.	.	4ee-\	.	4g\ 4gg	.	.	.	.	.	.	.	.	.	.	4e-\	4g\
4r	.	.	4ff\	.	4a-\ 4aa-	.	.	.	.	.	.	.	.	.	.	4f\	4a-\
=47	=47	=47	=47	=47	=47	=47	=47	=47	=47	=47	=47	=47	=47	=47	=47	=47	=47
4E-\	.	.	4ee-\	.	4g\ 4gg	.	.	.	.	.	.	.	.	.	.	4e-\	4g\
4r	.	.	8ff\L	.	8a-\L 8aa-	.	.	.	.	.	.	.	.	.	.	8f\L	8a-\L
.	.	.	8ee-\J	.	8g\J 8gg	.	.	.	.	.	.	.	.	.	.	8e-\J	8g\J
4r	.	.	4ee-\	.	4g\ 4gg	.	.	.	.	.	.	.	.	.	.	4e-\	4g\
=48	=48	=48	=48	=48	=48	=48	=48	=48	=48	=48	=48	=48	=48	=48	=48	=48	=48
!LO:LB:g=original	!	!	!	!	!	!	!	!	!	!	!	!	!	!	!	!	!LO:LB:g=original
4BB-/	.	.	4dd\	.	4f\ 4ff	.	.	.	.	.	.	.	.	.	.	4B-/	4f\
4r	.	.	4ee-\	.	4g\ 4gg	.	.	.	.	.	.	.	.	.	.	4e-\	4g\
4r	.	.	4ff\	.	4a-\ 4aa-	.	.	.	.	.	.	.	.	.	.	4f\	4a-\
=49	=49	=49	=49	=49	=49	=49	=49	=49	=49	=49	=49	=49	=49	=49	=49	=49	=49
4E-\	.	.	4ee-\	.	4g\ 4gg	.	.	.	.	.	.	.	.	.	.	4e-\	4g\
4BB-/	.	.	4dd\	.	4f\ 4ff	.	.	.	.	.	.	.	.	.	.	4B-/	4f\
4r	.	.	4r	.	4r	.	.	.	.	.	.	.	.	.	.	4r	4r
=50	=50	=50	=50	=50	=50	=50	=50	=50	=50	=50	=50	=50	=50	=50	=50	=50	=50
*	*	*	*Xcue	*	*	*	*	*	*	*	*	*	*	*	*	*	*
!LO:TX:a:t=Tutti	!	!LO:DY:Bi:t=forte	!LO:TX:a:t=Tutti Violin:rj	!	!LO:TX:t=P:problem=mixed beam	!LO:DY:Bi:t=for&colon;:rj	!	!	!	!	!LO:LB:g=original	!	!	!	!	!	!LO:TX:a:t=Tutti
4E-\	.	f	4ee-\	.	8gg\L	f	4E-\	O-	4e-\	O-	4b-\	O-	.	4gg\	O-	8e-/L	2.g\
.	.	.	.	.	8b-/	.	.	.	.	.	.	.	.	.	.	8B-/	.
4E-\	.	.	4ee-\	.	8gg\	.	4E-\	-san-	4e-\	-san-	4b-\	-san-	.	4gg\	-san-	8e-/	.
.	.	.	.	.	8b-/	.	.	.	.	.	.	.	.	.	.	8B-/	.
4E-\	.	.	4ee-\	.	8gg\	.	4E-\	-na	4e-\	-na	4b-\	-na	.	4gg\	-na	8e-/	.
.	.	.	.	.	8b-/J	.	.	.	.	.	.	.	.	.	.	8B-/J	.
=51	=51	=51	=51	=51	=51	=51	=51	=51	=51	=51	=51	=51	=51	=51	=51	=51	=51
!	!	!	!	!	!LO:TX:t=P:problem=mixed beam	!	!	!	!	!	!	!	!	!	!	!	!
2.D\	6 5	.	2.ff\	.	8aa-\L	.	2D\	in	2f\	in	2b-\	in	.	2aa-\	in	8f/L	2.a-\
.	.	.	.	.	8b-/	.	.	.	.	.	.	.	.	.	.	8B-/	.
.	.	.	.	.	8aa-\	.	.	.	.	.	.	.	.	.	.	8f/	.
.	.	.	.	.	8b-/	.	.	.	.	.	.	.	.	.	.	8B-/	.
.	.	.	.	.	8aa-\	.	4D\	ex-	4e-\	ex-	4b-\	ex-	.	4aa-\	ex-	8f/	.
.	.	.	.	.	8b-/J	.	.	.	.	.	.	.	.	.	.	8B-/J	.
=52	=52	=52	=52	=52	=52	=52	=52	=52	=52	=52	=52	=52	=52	=52	=52	=52	=52
!	!	!	!	!	!LO:TX:t=P:problem=mixed beam	!	!	!	!	!	!	!	!	!	!	!	!
4E-\	.	.	4ee-\	.	8gg\L	.	2.E-\	-cel-	2.e-\	-cel-	2.b-\	-cel-	.	2.gg\	-cel-	8e-/L	2.g\
.	.	.	.	.	8b-/	.	.	.	.	.	.	.	.	.	.	8B-/	.
4E-\	.	.	4ee-\	.	8gg\	.	.	.	.	.	.	.	.	.	.	8e-/	.
.	.	.	.	.	8b-/	.	.	.	.	.	.	.	.	.	.	8B-/	.
4E-\	.	.	4ee-\	.	8gg\	.	.	.	.	.	.	.	.	.	.	8e-/	.
.	.	.	.	.	8b-/J	.	.	.	.	.	.	.	.	.	.	8B-/J	.
=53	=53	=53	=53	=53	=53	=53	=53	=53	=53	=53	=53	=53	=53	=53	=53	=53	=53
2.BB-/	.	.	2.dd\	.	8ff\L	.	2.BB-/	-sis	2.d\	-ſis	2.b-\	-ſis	.	2.ff\	-sis	8B-/L	4f\
.	.	.	.	.	8b-\	.	.	.	.	.	.	.	.	.	.	8BB-/	.
.	.	.	.	.	8ff\	.	.	.	.	.	.	.	.	.	.	8B-/	8f\L
.	.	.	.	.	8b-\J	.	.	.	.	.	.	.	.	.	.	8BB-/J	8f\J
.	.	.	.	.	4ff\	.	.	.	.	.	.	.	.	.	.	4B-/	4f\
=54	=54	=54	=54	=54	=54	=54	=54	=54	=54	=54	=54	=54	=54	=54	=54	=54	=54
!	!	!	!	!	!LO:TX:t=P:problem=mixed beam	!	!LO:LB:g=original	!	!	!	!	!	!	!	!	!LO:LB:g=original	!
4E-\	.	.	4ee-\	.	8gg\L	.	4E-\	O-	4e-\	O-	4b-\	O-	.	4gg\	O-	8e-/L	4g\
.	.	.	.	.	8b-/	.	.	.	.	.	.	.	.	.	.	8B-/	.
4E-\	.	.	4ee-\	.	8gg\	.	4E-\	-san-	4e-\	-san-	4b-\	-san-	.	4gg\	-san-	8e-/	4g\
.	.	.	.	.	8b-/	.	.	.	.	.	.	.	.	.	.	8B-/	.
4E-\	.	.	4ee-\	.	8gg\	.	4E-\	-na	4e-\	-na	4b-\	-na	.	4gg\	-na	8e-/	4g\
.	.	.	.	.	8b-/J	.	.	.	.	.	.	.	.	.	.	8B-/J	.
=55	=55	=55	=55	=55	=55	=55	=55	=55	=55	=55	=55	=55	=55	=55	=55	=55	=55
!	!	!	!	!	!LO:TX:t=P:problem=mixed beam	!	!	!	!	!	!	!	!	!	!	!	!
2.D\	6 5	.	2.ff\	.	8aa-\L	.	2D\	in	2f\	in	2b-\	in	.	2aa-\	in	8f/L	2.a-\
.	.	.	.	.	8b-/	.	.	.	.	.	.	.	.	.	.	8B-/	.
.	.	.	.	.	8aa-\	.	.	.	.	.	.	.	.	.	.	8f/	.
.	.	.	.	.	8b-/	.	.	.	.	.	.	.	.	.	.	8B-/	.
.	.	.	.	.	8aa-\	.	4D\	ex-	4f\	ex-	4b-\	ex-	.	4aa-\	ex-	8f/	.
.	.	.	.	.	8b-/J	.	.	.	.	.	.	.	.	.	.	8B-/J	.
=56	=56	=56	=56	=56	=56	=56	=56	=56	=56	=56	=56	=56	=56	=56	=56	=56	=56
4E-\	x 3	.	4ee-\	.	8gg\L	.	4E-\	-cel-	4e-\	-cel-	2.b-\	-cel-	.	4gg\	-cel-	4e-\	4g\
.	.	.	.	.	8b-\	.	.	.	.	.	.	.	.	.	.	.	.
4F\	x 8	.	4b-\	.	8ff\	.	4F\	.	2B-\	.	.	.	.	4ff\	.	4r	4r
.	.	.	.	.	8b-\	.	.	.	.	.	.	.	.	.	.	.	.
4G\	x 6	.	4b-\	.	8ee-\	.	4G\	.	.	.	.	.	.	4ee-\	.	4r	4r
.	.	.	.	.	8b-\J	.	.	.	.	.	.	.	.	.	.	.	.
=57	=57	=57	=57	=57	=57	=57	=57	=57	=57	=57	=57	=57	=57	=57	=57	=57	=57
4BB-/	x 3	.	4b-\	.	8dd\L	.	4BB-/	.	2.B-\	.	2.b-\	.	.	4dd\	.	4r	4r
.	.	.	.	.	8b-\	.	.	.	.	.	.	.	.	.	.	.	.
4C/	x 3	.	4b-\	.	8ee-\	.	4C/	.	.	.	.	.	.	4ee-\	.	4r	4r
.	.	.	.	.	8b-\	.	.	.	.	.	.	.	.	.	.	.	.
4D/	x 3	.	4b-\	.	8ff\	.	4D/	.	.	.	.	.	.	4ff\	.	4B-/	4f\
.	.	.	.	.	8b-\J	.	.	.	.	.	.	.	.	.	.	.	.
=58	=58	=58	=58	=58	=58	=58	=58	=58	=58	=58	=58	=58	=58	=58	=58	=58	=58
!	!	!	!LO:LB:g=original	!	!LO:LB:g=original	!	!	!	!LO:LB:g=original	!	!	!	!	!LO:LB:g=original	!	!	!
4E-\	x 3	.	4b-\	.	8gg\L	.	4E-\	.	2.B-\	.	2.b-\	.	.	4gg\	.	4e-\	4g\
.	.	.	.	.	8b-\	.	.	.	.	.	.	.	.	.	.	.	.
4F\	x 8	.	4b-\	.	8ff\	.	4F\	.	.	.	.	.	.	4ff\	.	4r	4r
.	.	.	.	.	8b-\	.	.	.	.	.	.	.	.	.	.	.	.
4G\	x 6	.	4b-\	.	8ee-\	.	4G\	.	.	.	.	.	.	4ee-\	.	4r	4r
.	.	.	.	.	8b-\J	.	.	.	.	.	.	.	.	.	.	.	.
=59	=59	=59	=59	=59	=59	=59	=59	=59	=59	=59	=59	=59	=59	=59	=59	=59	=59
4BB-/	x 3	.	4b-\	.	8dd\L	.	4BB-/	.	2.B-\	.	2.b-\	.	.	4dd\	.	4r	4r
.	.	.	.	.	8b-\	.	.	.	.	.	.	.	.	.	.	.	.
4C/	x 3	.	4b-\	.	8ee-\	.	4C/	.	.	.	.	.	.	4ee-\	.	4r	4r
.	.	.	.	.	8b-\	.	.	.	.	.	.	.	.	.	.	.	.
4D/	x 3	.	4b-\	.	8ff\	.	4D\	.	.	.	.	.	.	4ff\	.	4B-/	4f\
.	.	.	.	.	8b-\J	.	.	.	.	.	.	.	.	.	.	.	.
=60	=60	=60	=60	=60	=60	=60	=60	=60	=60	=60	=60	=60	=60	=60	=60	=60	=60
!LO:LB:g=original	!	!	!	!	!LO:TX:t=P:problem=mixed beam	!	!	!	!	!	!	!	!	!	!	!	!LO:LB:g=original
4E-\	x 3	.	4b-\	.	8gg\L	.	4E-\	.	2.B-\	.	2.b-\	.	.	4gg\	.	4e-\	4g\
.	.	.	.	.	8b-/	.	.	.	.	.	.	.	.	.	.	.	.
4F\	x 3	.	4b-\	.	8aa-\	.	4F\	.	.	.	.	.	.	4aa-\	.	4r	4r
.	.	.	.	.	8b-/	.	.	.	.	.	.	.	.	.	.	.	.
4G\	x 3	.	4b-\	.	8bb-\	.	4G\	.	.	.	.	.	.	4bb-\	.	4r	4r
.	.	.	.	.	8b-/J	.	.	.	.	.	.	.	.	.	.	.	.
=61	=61	=61	=61	=61	=61	=61	=61	=61	=61	=61	=61	=61	=61	=61	=61	=61	=61
4F\	x 3	.	4b-\	.	8aa-\L	.	4F\	.	2.B-\	.	2.b-\	.	.	4aa-\	.	0.r	0.r
.	.	.	.	.	8b-\	.	.	.	.	.	.	.	.	.	.	.	.
4D\	x 3	.	4b-\	.	8ff\	.	4D\	.	.	.	.	.	.	4ff\	.	.	.
.	.	.	.	.	8b-\	.	.	.	.	.	.	.	.	.	.	.	.
4E-\	x 3	.	4b-\	.	8gg\	.	4E-\	-ſis	.	.	.	.	.	4gg\	.	.	.
.	.	.	.	.	8b-\J	.	.	.	.	.	.	.	.	.	.	.	.
=62	=62	=62	=62	=62	=62	=62	=62	=62	=62	=62	=62	=62	=62	=62	=62	=62	=62
4A-\	x 6	.	4b-\	.	8ff\L	.	4A-\	in	2.B-\	.	2.b-\	.	.	4ff\	.	.	.
.	.	.	.	.	8b-\	.	.	.	.	.	.	.	.	.	.	.	.
4F\	x 6	.	4b-\	.	8dd\	.	4F\	.	.	.	.	.	.	4dd\	.	.	.
.	.	.	.	.	8b-\	.	.	.	.	.	.	.	.	.	.	.	.
4G\	x 6	.	4b-\	.	8ee-\	.	4G\	ex-	.	.	.	.	.	4ee-\	.	.	.
.	.	.	.	.	8b-\J	.	.	.	.	.	.	.	.	.	.	.	.
=63	=63	=63	=63	=63	=63	=63	=63	=63	=63	=63	=63	=63	=63	=63	=63	=63	=63
4F\	x 3	.	4b-\	.	8aa-\L	.	4F\	-cel-	2.B-\	.	2.b-\	.	.	4aa-\	.	.	.
.	.	.	.	.	8b-\	.	.	.	.	.	.	.	.	.	.	.	.
4D\	x 3	.	4b-\	.	8ff\	.	4D\	.	.	.	.	.	.	4ff\	.	.	.
.	.	.	.	.	8b-\	.	.	.	.	.	.	.	.	.	.	.	.
4E-\	x 3	.	4b-\	.	8gg\	.	4E-\	.	.	.	.	.	.	4gg\	.	.	.
.	.	.	.	.	8b-\J	.	.	.	.	.	.	.	.	.	.	.	.
=64	=64	=64	=64	=64	=64	=64	=64	=64	=64	=64	=64	=64	=64	=64	=64	=64	=64
!	!	!	!	!	!	!	!LO:LB:g=original	!	!	!	!LO:LB:g=original	!	!	!	!	!	!
4A-\	x 6	.	4b-\	.	8ff\L	.	4A-\	.	2.B-\	.	2.b-\	-ſis	.	4ff\	.	.	.
.	.	.	.	.	8b-\	.	.	.	.	.	.	.	.	.	.	.	.
4F\	x 6	.	4b-\	.	8dd\	.	4F\	.	.	.	.	.	.	4dd\	.	.	.
.	.	.	.	.	8b-\	.	.	.	.	.	.	.	.	.	.	.	.
4G\	x 6	.	4b-\	.	8ee-\	.	4G\	.	.	.	.	.	.	4ee-\	-ſis	.	.
.	.	.	.	.	8b-\J	.	.	.	.	.	.	.	.	.	.	.	.
=65	=65	=65	=65	=65	=65	=65	=65	=65	=65	=65	=65	=65	=65	=65	=65	=65	=65
4A-\	.	.	4e-/	.	8cc\L	.	4A-\	-ſis	4A-\	-ſis	4e-\	O-	.	4cc\	O	1.r	1.r
.	.	.	.	.	8ccc\	.	.	.	.	.	.	.	.	.	.	.	.
4r	.	.	8cc\L	.	8aa-\	.	4r	.	4r	.	8cc\L	-san-	.	8aa-\L	San-	.	.
.	.	.	8b-\	.	8gg\	.	.	.	.	.	8b-\J	.	.	8gg\J	.	.	.
4r	.	.	8a-\	.	8ff\	.	4r	.	4r	.	8a-\L	-na	.	8ff\L	-na	.	.
.	.	.	8g\J	.	8ee-\J	.	.	.	.	.	8g\J	.	.	8ee-\J	.	.	.
=66	=66	=66	=66	=66	=66	=66	=66	=66	=66	=66	=66	=66	=66	=66	=66	=66	=66
.	.	.	8qqg/	.	8qqee-/	.	.	.	.	.	.	.	.	8qqee-/	.	.	.
4B-\	x 5	.	4f/	.	4dd\	.	4B-\	in	2B-\	in	2f\	in	.	4dd\	in	.	.
4A-\	x _	.	4f/	.	8cc\L	.	4A-\	.	.	.	.	.	.	8cc\L	ex-	.	.
.	.	.	.	.	8dd\J	.	.	.	.	.	.	.	.	8dd\J	.	.	.
4G\	x 6	.	4g/	.	4ee-\	.	4G\	ex-	4B-\	ex-	4g\	ex-	.	4ee-\	.	.	.
=67	=67	=67	=67	=67	=67	=67	=67	=67	=67	=67	=67	=67	=67	=67	=67	=67	=67
*	*	*	*Xtuplet	*	*Xtuplet	*	*	*	*	*	*Xtuplet	*	*	*Xtuplet	*	*	*
!	!	!	!LO:TUP:b:problem=klamra łukowa, kropka zamiast numeru	!	!LO:TUP:b:problem=klamra łukowa, kropka zamiast numeru	!	!	!	!	!	!	!	!	!LO:TUP:a:problem=klamra łukowa, kropka zamiast numeru	!	!	!
4A-\	.	.	12a-/L	.	12cc/L	.	4A-\	-cel-	4c\	-cel-	12a-\L	-cel-	.	12cc\L	-cel-	4r	4r
.	.	.	12g/	.	12b-/	.	.	.	.	.	12g\	.	.	12b-\	.	.	.
.	.	.	12f/J	.	12a-/J	.	.	.	.	.	12f\J	.	.	12a-\J	.	.	.
4B-\	.	.	4e-/	.	4g/	.	4B-\	.	2B-\	.	4e-\	.	.	4g/	.	4e-\	4g\
4BB-/	.	.	4d/	.	4f/	.	4BB-/	.	.	.	4d\	.	.	4f/	.	4B-/	4f\
=68	=68	=68	=68	=68	=68	=68	=68	=68	=68	=68	=68	=68	=68	=68	=68	=68	=68
!	!	!	!	!	!LO:LB:g=original	!	!	!	!	!	!	!	!	!LO:LB:g=original	!	!LO:TX:t=P:problem=mixed beam	!
8E-|\L	.	.	4e-/	.	4e-/	.	4E-\	-ſis	4B-\	-ſis	4e-\	-ſis	.	4g/	-sis	8E-/L	2.e-\
8E-|\	.	.	.	.	.	.	.	.	.	.	.	.	.	.	.	8e-\	.
8E-|\	.	.	4r	.	4r	.	4r	.	4r	.	4r	.	.	4r	.	8E-/	.
8E-|\	.	.	.	.	.	.	.	.	.	.	.	.	.	.	.	8e-\	.
8E-|\	.	.	8.cc\L	.	8.ee-\L	.	4r	.	4r	.	4r	.	.	4r	.	8E-/	.
8E-|\J	.	.	.	.	.	.	.	.	.	.	.	.	.	.	.	8e-\J	.
.	.	.	32dd\LL	.	32ff\LL	.	.	.	.	.	.	.	.	.	.	.	.
.	.	.	32cc\JJJ	.	32ee-\JJJ	.	.	.	.	.	.	.	.	.	.	.	.
=69	=69	=69	=69	=69	=69	=69	=69	=69	=69	=69	=69	=69	=69	=69	=69	=69	=69
*tremolo	*	*	*	*	*	*	*	*	*	*	*	*	*	*	*	*	*
!LO:TX:t=P:problem=sześciokrotne staccato	!	!	!LO:LB:g=original	!	!	!	!	!	!	!	!	!	!	!LO:TX:a:t=1	!	!LO:TX:t=P:problem=mixed beam	!
8E-'\L	.	.	4b-\	.	4dd\	.	2.r	.	2.r	.	2.r	.	.	2.r	.	8E-/L	2.e-\
8E-'\	.	.	.	.	.	.	.	.	.	.	.	.	.	.	.	8e-\	.
8E-'\	.	.	4r	.	4r	.	.	.	.	.	.	.	.	.	.	8E-/	.
8E-'\	.	.	.	.	.	.	.	.	.	.	.	.	.	.	.	8e-\	.
8E-'\	.	.	8.a-/L	.	8.cc\L	.	.	.	.	.	.	.	.	.	.	8E-/	.
8E-'\J	.	.	.	.	.	.	.	.	.	.	.	.	.	.	.	8e-\J	.
.	.	.	32b-/LL	.	32dd\LL	.	.	.	.	.	.	.	.	.	.	.	.
.	.	.	32a-/JJJ	.	32cc\JJJ	.	.	.	.	.	.	.	.	.	.	.	.
=70	=70	=70	=70	=70	=70	=70	=70	=70	=70	=70	=70	=70	=70	=70	=70	=70	=70
!	!	!	!	!	!	!	!	!	!	!	!	!	!	!	!	!LO:LB:g=original	!
!LO:TX:t=P:problem=sześciokrotne staccato	!	!	!	!	!	!	!	!	!LO:LB:g=original	!	!	!	!	!	!	!LO:TX:t=P:problem=mixed beam	!
8E-'\L	.	.	4g/	.	4b-\	.	4r	.	4r	.	4r	.	.	4r	.	8E-/L	2e-\
8E-'\	.	.	.	.	.	.	.	.	.	.	.	.	.	.	.	8e-\	.
8E-'\	.	.	4r	.	4r	.	4r	.	4r	.	4r	.	.	4r	.	8E-/	.
8E-'\	.	.	.	.	.	.	.	.	.	.	.	.	.	.	.	8e-\J	.
8E-'\	.	.	8e-/L	.	8g/L	.	8E-\	in	8B-\	in	8e-\	in	.	8g/	in	8e-\L	8g\L
8E-'\J	.	.	8g/J	.	8b-/J	.	8E-\	ex-	8e-\	ex-	8g\	ex-	.	8b-/	ex-	8g\J	8b-\J
*Xtremolo	*	*	*	*	*	*	*	*	*	*	*	*	*	*	*	*	*
=71	=71	=71	=71	=71	=71	=71	=71	=71	=71	=71	=71	=71	=71	=71	=71	=71	=71
!LO:LB:g=original	!	!	!	!	!	!	!	!	!	!	!	!	!	!	!	!	!
4E-\	5 3	.	8g/L	.	8b-/L	.	4E-\	-cel-	4e-\	-cel-	8g\L	-cel-	.	8b-/L	-cel-	8g\L	8b-\L
.	4 2	.	8f/J	.	8a-/J	.	.	.	.	.	8f\J	.	.	8a-/J	.	8f\J	8a-\J
4B-\	6 4	.	4e-/	.	4g/	.	4B-\	.	2B-\	.	4e-\	.	.	4g/	.	4e-\	4g\
4BB-/	5 3	.	4d/	.	4f/	.	4BB-/	.	.	.	4d\	.	.	4f/	.	4B-/	4f\
=72	=72	=72	=72	=72	=72	=72	=72	=72	=72	=72	=72	=72	=72	=72	=72	=72	=72
!	!	!	!	!	!	!	!	!	!	!	!	!	!	!	!	!LO:TX:t=P:problem=mixed beam	!
8E-|\L	.	.	4e-/	.	4g/	.	4E-\	-ſis	4B-\	-ſis	4e-\	-ſis	.	4g/	-ſis	8E-/L	2.e-\
8E-|\	.	.	.	.	.	.	.	.	.	.	.	.	.	.	.	8e-\	.
8E-|\	.	.	4r	.	4r	.	4r	.	4r	.	4r	.	.	4r	.	8E-/	.
8E-|\	.	.	.	.	.	.	.	.	.	.	.	.	.	.	.	8e-\	.
8E-|\	.	.	8.cc\L	.	8.ee-\L	.	4r	.	4r	.	4r	.	.	4r	.	8E-/	.
8E-|\J	.	.	.	.	.	.	.	.	.	.	.	.	.	.	.	8e-\J	.
.	.	.	32dd\LL	.	32ff\LL	.	.	.	.	.	.	.	.	.	.	.	.
.	.	.	32cc\JJJ	.	32ee-\JJJ	.	.	.	.	.	.	.	.	.	.	.	.
=73	=73	=73	=73	=73	=73	=73	=73	=73	=73	=73	=73	=73	=73	=73	=73	=73	=73
*tremolo	*	*	*	*	*	*	*	*	*	*	*	*	*	*	*	*	*
!LO:TX:t=P:problem=sześciokrotne staccato	!	!	!	!	!	!	!	!	!	!	!	!	!	!LO:TX:a:t=1	!	!LO:TX:t=P:problem=mixed beam	!
8E-'\L	.	.	4b-\	.	4dd\	.	2.r	.	2.r	.	2.r	.	.	2.r	.	8E-/L	2.e-\
8E-'\	.	.	.	.	.	.	.	.	.	.	.	.	.	.	.	8e-\	.
8E-'\	.	.	4r	.	4r	.	.	.	.	.	.	.	.	.	.	8E-/	.
8E-'\	.	.	.	.	.	.	.	.	.	.	.	.	.	.	.	8e-\	.
8E-'\	.	.	8.a-/L	.	8.cc\L	.	.	.	.	.	.	.	.	.	.	8E-/	.
8E-'\J	.	.	.	.	.	.	.	.	.	.	.	.	.	.	.	8e-\J	.
.	.	.	32b-/LL	.	32dd\LL	.	.	.	.	.	.	.	.	.	.	.	.
.	.	.	32a-/JJJ	.	32cc\JJJ	.	.	.	.	.	.	.	.	.	.	.	.
=74	=74	=74	=74	=74	=74	=74	=74	=74	=74	=74	=74	=74	=74	=74	=74	=74	=74
!LO:TX:t=P:problem=sześciokrotne staccato	!	!	!	!	!	!	!	!	!	!	!	!	!	!	!	!LO:TX:t=P:problem=mixed beam	!
8E-'\L	.	.	4g/	.	4b-\	.	4r	.	4r	.	4r	.	.	4r	.	8E-/L	2e-\
8E-'\	.	.	.	.	.	.	.	.	.	.	.	.	.	.	.	8e-\	.
8E-'\	.	.	4r	.	4r	.	4r	.	4r	.	4r	.	.	4r	.	8E-/	.
8E-'\	.	.	.	.	.	.	.	.	.	.	.	.	.	.	.	8e-\J	.
8E-'\	.	.	8e-/L	.	8g/L	.	8E-\	in	8B-\	in	8e-\	in	.	8g/	in	8e-\L	8g\L
8E-'\J	.	.	8g/J	.	8b-/J	.	8E-\	ex-	8e-\	ex-	8g\	ex-	.	8b-/	ex-	8g\J	8b-\J
*Xtremolo	*	*	*	*	*	*	*	*	*	*	*	*	*	*	*	*	*
=75	=75	=75	=75	=75	=75	=75	=75	=75	=75	=75	=75	=75	=75	=75	=75	=75	=75
!	!	!	!	!	!	!	!	!	!	!	!LO:LB:g=original	!	!	!	!	!	!
4E-\	5 3	.	8g/L	.	8b-/L	.	4E-\	-cel-	4e-\	-cel-	8g\L	-cel-	.	8b-/L	-cel-	8g\L	8b-\L
.	4 2	.	8f/J	.	8a-/J	.	.	.	.	.	8f\J	.	.	8a-/J	.	8f\J	8a-\J
4B-\	6 4	.	4e-/	.	4g/	.	4B-\	.	2B-\	.	4e-\	.	.	4g/	.	4e-\	4g\
4BB-/	5 3	.	4d/	.	4f/	.	4BB-/	.	.	.	4d\	.	.	4f/	.	4B-/	4f\
=76	=76	=76	=76	=76	=76	=76	=76	=76	=76	=76	=76	=76	=76	=76	=76	=76	=76
4E-\	.	.	4G/ 4e-	.	4g/	.	4E-\	-ſis.	4B-\	-ſis:	4e-\	-ſis.	.	4g\	-ſis.	4G/	4e-'\
4E-\	.	.	4G/ 4e-	.	4b-/ 4gg	.	4r	.	4r	.	4r	.	.	4r	.	4G/	4e-'\
4E-\	.	.	4G/ 4e-	.	4b-/ 4gg	.	4r	.	4r	.	4r	.	.	4r	.	4G/	4e-'\
=77	=77	=77	=77	=77	=77	=77	=77	=77	=77	=77	=77	=77	=77	=77	=77	=77	=77
4E-\	.	.	4G/ 4e-	.	4b-/ 4gg	.	2.r	.	2.r	.	2.r	.	.	2.r	.	4G/	4e-\
4r	.	.	2r	.	4r	.	.	.	.	.	.	.	.	.	.	4r	4r
4r	.	.	.	.	4r	.	.	.	.	.	.	.	.	.	.	4r	4r
==	==	==	==	==	==	==	==	==	==	==	==	==	==	==	==	==	==
*-	*-	*-	*-	*-	*-	*-	*-	*-	*-	*-	*-	*-	*-	*-	*-	*-	*-
!!!system-decoration: [(s1,s2)][(s3,s4,s5,s6)][(s7,s8)](s9)
!!!RDF**kern: | = vertical stroke
!!!RDF**kern: > = above
!!!RDF**kern: < = below
!!!ENC: Andrzej Gręziak
!!!END: 2020-08-17
!!!ENC: Krzysztof Stępień
!!!END: 2021-11-12
!!!YEC: Copyright 2022 Narodowy Instytut Fryderyka Chopina (https://polishscores.org)
!!!YEM: License CC-BY-4.0 (https://creativecommons.org/licenses/by/4.0)
